X:1
T:Moon River 
L:1/4
M:3/4
K:C
|"Cmaj7"G3|"Am7"d c2|"F7"B>A G/F/|"Cma7"G2C|
"F7"B>A G/F/|"Cma7"G2C|"Bm7b5"D3-|"E7"D2E|
|1 "Am7"C3|"C7/G"GE>D|"F"C3|"Bb9"GE>D|"Am"CEG|"B7"cB>A|"Em"BA>"A7"G|"Dm7"A2-"G7"A:|
|2 "Am7"C3|E2G|c3|"F7"d2c|"C"G3-|"F"G B/A/ G/F/|"C"G3-|"F"G/C/ B/A/ G/F/|
"C"G3|"Am"C3|"Dm7"FD2-|"G7"D2E|"C"C3-|C3|]
